X:1
T:Stop Waltz. JNi.[008]
T:Stop Waltz. JNi.[008]
T:John Nichol
C:John Nichol
L:1/8
Q:1/4=140
M:3/4
K:G
V:1 treble 
V:1
 dc | B2 d2 G2 | F4 cB | A2 c2 F2 | G4 dc | B2 d2 g2 | e4 cB | A2 c2 F2 |"^NB1" G6 :: d2 | %10
 b2- bagf | a2- agfe | d2 e2 c2 | B4 d2 | b2 bagf | a2 agfe | d2 e2 f2 | g4 :| %18

